X:8
T:March by H(or J).Hughes.2voices. AJH.008
M:4/4
L:1/8
Q:1/4=120
S:A.J.Hughes MS
O:England
A:North Shropshire
V:1 clef=treble
V:2 clef=bass
N:Voice 2 is written in MS in bass clef
Z:Neil Brookes 2006
K:G
[V:1] |: GB | d2d>d d2 (3cBA | G2G>G G2c2 | gd cA B2G2 | A2A>A A2 G>B |
[V:2] |: z2 | D2A,>F, D,2z2 | G,,2G,,>G,, G,,2z2 |\
G,2D,2 B,,2G,,2 | D,2D,>D, D,2z2 |
%
[V:1] d2d>d d2 (3cBA | G2g>g g2 ec | A2a2 g>fe2 | d2d>d d2 😐
[V:2] D2A,>F, D,2z2 | G,,2G,,>G,,G,,2 [E,2C,2] |\
A,2F,2 A,2A,,2 | D,2D,>D, D,2 😐
%
[V:1] |: (3gfe |c2c>c c2 (3gfe | B2B>B B2 (3dcB |\
G2 eg fd BG | A2A>A A2G>B |
[V:2] |: z2 |C,2C,>C, C,2C,2 | G,2G,2 G,2z2 |\
G,2D,2 B,,2G,,2 | D,2D,>D, D,2z2 |
%
[V:1] d2d>d d2 (3cBA | G2g>g g2 ec |dB cA BG AF | G2G>G G2 😐
[V:2] D2A,>F, D,2z2 | G,,2G,,>G,, G,,2E,2 |\
G,2E,2 D,2D,,2 | G,,2G,,>G,, G,,2 😐

